styles/3/Numix/128x128/actions/default-add-folders-to-archive.svg

<svg xmlns="http://www.w3.org/2000/svg" xmlns:xlink="http://www.w3.org/1999/xlink" width="128px" height="128px" viewBox="0 0 128 128" version="1.1">
<g id="surface1">
<path style=" stroke:none;fill-rule:nonzero;fill:rgb(91.764706%,56.470588%,21.176471%);fill-opacity:1;" d="M 8 52 L 92 52 L 92 88 L 8 88 Z M 8 52 "/>
<path style=" stroke:none;fill-rule:nonzero;fill:rgb(91.764706%,56.470588%,21.176471%);fill-opacity:1;" d="M 16 56 C 16 52 16 48 21.089844 48 L 38.910156 48 C 44 48 44 52 44 56 Z M 16 56 "/>
<path style=" stroke:none;fill-rule:nonzero;fill:rgb(58.431373%,59.607843%,62.352941%);fill-opacity:1;" d="M 12 56 L 88 56 L 88 72.179688 L 12 72.179688 Z M 12 56 "/>
<path style=" stroke:none;fill-rule:nonzero;fill:rgb(84.705882%,84.705882%,85.490196%);fill-opacity:1;" d="M 20 60 L 84 60 L 84 105.332031 L 20 105.332031 Z M 20 60 "/>
<path style=" stroke:none;fill-rule:nonzero;fill:rgb(97.647059%,97.647059%,97.647059%);fill-opacity:1;" d="M 16 64 L 80 64 L 80 110.222656 L 16 110.222656 Z M 16 64 "/>
<path style=" stroke:none;fill-rule:nonzero;fill:rgb(94.901961%,73.333333%,39.215686%);fill-opacity:1;" d="M 0 68 L 100 68 L 92 120 L 8 120 Z M 0 68 "/>
<path style=" stroke:none;fill-rule:nonzero;fill:rgb(91.764706%,56.470588%,21.176471%);fill-opacity:1;" d="M 18.667969 56 C 18.667969 52 18.667969 48 23.515625 48 L 40.484375 48 C 45.332031 48 45.332031 52 45.332031 56 Z M 18.667969 56 "/>
<path style=" stroke:none;fill-rule:nonzero;fill:rgb(91.764706%,56.470588%,21.176471%);fill-opacity:1;" d="M 36 12 L 120 12 L 120 48 L 36 48 Z M 36 12 "/>
<path style=" stroke:none;fill-rule:nonzero;fill:rgb(91.764706%,56.470588%,21.176471%);fill-opacity:1;" d="M 44 16 C 44 12 44 8 49.089844 8 L 66.910156 8 C 72 8 72 12 72 16 Z M 44 16 "/>
<path style=" stroke:none;fill-rule:nonzero;fill:rgb(58.431373%,59.607843%,62.352941%);fill-opacity:1;" d="M 40 16 L 116 16 L 116 32.179688 L 40 32.179688 Z M 40 16 "/>
<path style=" stroke:none;fill-rule:nonzero;fill:rgb(84.705882%,84.705882%,85.490196%);fill-opacity:1;" d="M 48 20 L 112 20 L 112 65.332031 L 48 65.332031 Z M 48 20 "/>
<path style=" stroke:none;fill-rule:nonzero;fill:rgb(97.647059%,97.647059%,97.647059%);fill-opacity:1;" d="M 44 24 L 108 24 L 108 70.222656 L 44 70.222656 Z M 44 24 "/>
<path style=" stroke:none;fill-rule:nonzero;fill:rgb(0%,0%,0%);fill-opacity:0.101961;" d="M 21.125 48 C 17.816406 48 16.65625 49.71875 16.25 52 L 8 52 L 8 68 L 0 68 L 8 120 L 92 120 L 100 68 L 92 68 L 92 52 L 45.125 52 C 44.738281 49.71875 43.648438 48 40.5 48 Z M 21.125 48 "/>
<path style=" stroke:none;fill-rule:nonzero;fill:rgb(94.901961%,73.333333%,39.215686%);fill-opacity:1;" d="M 28 28 L 128 28 L 120 80 L 36 80 Z M 28 28 "/>
<path style=" stroke:none;fill-rule:nonzero;fill:rgb(52.156863%,60%,0%);fill-opacity:1;" d="M 120 84 L 100 84 L 100 64 L 80 64 L 80 84 L 60 84 L 60 104 L 80 104 L 80 124 L 100 124 L 100 104 L 120 104 Z M 120 84 "/>
</g>
</svg>

<?xml version="1.0" encoding="UTF-8" standalone="no"?>
<svg
   xmlns:dc="http://purl.org/dc/elements/1.1/"
   xmlns:cc="http://creativecommons.org/ns#"
   xmlns:rdf="http://www.w3.org/1999/02/22-rdf-syntax-ns#"
   xmlns:svg="http://www.w3.org/2000/svg"
   xmlns="http://www.w3.org/2000/svg"
   xmlns:sodipodi="http://sodipodi.sourceforge.net/DTD/sodipodi-0.dtd"
   xmlns:inkscape="http://www.inkscape.org/namespaces/inkscape"
   width="128px"
   height="128px"
   viewBox="0 0 128 128"
   version="1.1"
   id="svg2"
   inkscape:version="0.48.5 r10040"
   sodipodi:docname="add-folders-to-archive.svg">
  <metadata
     id="metadata39">
    <rdf:RDF>
      <cc:Work
         rdf:about="">
        <dc:format>image/svg+xml</dc:format>
        <dc:type
           rdf:resource="http://purl.org/dc/dcmitype/StillImage" />
      </cc:Work>
    </rdf:RDF>
  </metadata>
  <defs
     id="defs37" />
  <sodipodi:namedview
     pagecolor="#ffffff"
     bordercolor="#666666"
     borderopacity="1"
     objecttolerance="10"
     gridtolerance="10"
     guidetolerance="10"
     inkscape:pageopacity="0"
     inkscape:pageshadow="2"
     inkscape:window-width="668"
     inkscape:window-height="480"
     id="namedview35"
     showgrid="false"
     inkscape:zoom="2.6074563"
     inkscape:cx="77.326859"
     inkscape:cy="53.709162"
     inkscape:window-x="201"
     inkscape:window-y="158"
     inkscape:window-maximized="0"
     inkscape:current-layer="svg2" />
  <path
     inkscape:connector-curvature="0"
     id="path5"
     d="m 8,52 84,0 0,36 -84,0 z m 0,0"
     style="fill:#ea9036;fill-opacity:1;fill-rule:nonzero;stroke:none" />
  <path
     inkscape:connector-curvature="0"
     id="path7"
     d="m 16,56 c 0,-4 0,-8 5.089844,-8 l 17.820312,0 C 44,48 44,52 44,56 z m 0,0"
     style="fill:#ea9036;fill-opacity:1;fill-rule:nonzero;stroke:none" />
  <path
     inkscape:connector-curvature="0"
     id="path9"
     d="m 12,56 76,0 0,16.179688 -76,0 z m 0,0"
     style="fill:#94979e;fill-opacity:1;fill-rule:nonzero;stroke:none" />
  <path
     inkscape:connector-curvature="0"
     id="path11"
     d="m 20,60 64,0 0,45.33203 -64,0 z m 0,0"
     style="fill:#d7d7d9;fill-opacity:1;fill-rule:nonzero;stroke:none" />
  <path
     inkscape:connector-curvature="0"
     id="path13"
     d="m 16,64 64,0 0,46.22266 -64,0 z m 0,0"
     style="fill:#f8f8f8;fill-opacity:1;fill-rule:nonzero;stroke:none" />
  <path
     inkscape:connector-curvature="0"
     id="path15"
     d="m 0,68 100,0 -8,52 -84,0 z m 0,0"
     style="fill:#f2bb64;fill-opacity:1;fill-rule:nonzero;stroke:none" />
  <path
     inkscape:connector-curvature="0"
     id="path17"
     d="m 18.667969,56 c 0,-4 0,-8 4.847656,-8 l 16.96875,0 c 4.847656,0 4.847656,4 4.847656,8 z m 0,0"
     style="fill:#ea9036;fill-opacity:1;fill-rule:nonzero;stroke:none" />
  <path
     inkscape:connector-curvature="0"
     id="path19"
     d="m 36,12 84,0 0,36 -84,0 z m 0,0"
     style="fill:#ea9036;fill-opacity:1;fill-rule:nonzero;stroke:none" />
  <path
     inkscape:connector-curvature="0"
     id="path29"
     d="m 21.125,48 c -3.308594,0 -4.46875,1.71875 -4.875,4 L 8,52 l 0,16 -8,0 8,52 84,0 8,-52 -8,0 0,-16 -46.875,0 C 44.738281,49.71875 43.648438,48 40.5,48 z m 0,0"
     style="fill:#000000;fill-opacity:0.10196102;fill-rule:nonzero;stroke:none" />
  <path
     inkscape:connector-curvature="0"
     id="path21"
     d="m 44,16 c 0,-4 0,-8 5.089844,-8 L 66.910156,8 C 72,8 72,12 72,16 z m 0,0"
     style="fill:#ea9036;fill-opacity:1;fill-rule:nonzero;stroke:none" />
  <path
     inkscape:connector-curvature="0"
     id="path23"
     d="m 40,16 76,0 0,16.179688 -76,0 z m 0,0"
     style="fill:#94979e;fill-opacity:1;fill-rule:nonzero;stroke:none" />
  <path
     inkscape:connector-curvature="0"
     id="path25"
     d="m 48,20 64,0 0,45.332031 -64,0 z m 0,0"
     style="fill:#d7d7d9;fill-opacity:1;fill-rule:nonzero;stroke:none" />
  <path
     inkscape:connector-curvature="0"
     id="path27"
     d="m 44,24 64,0 0,46.222656 -64,0 z m 0,0"
     style="fill:#f8f8f8;fill-opacity:1;fill-rule:nonzero;stroke:none" />
  <path
     inkscape:connector-curvature="0"
     id="path31"
     d="m 28,28 100,0 -8,52 -84,0 z m 0,0"
     style="fill:#f2bb64;fill-opacity:1;fill-rule:nonzero;stroke:none" />
  <path
     inkscape:connector-curvature="0"
     id="path33"
     d="m 120,84 -20,0 0,-20 -20,0 0,20 -20,0 0,20 20,0 0,20 20,0 0,-20 20,0 z m 0,0"
     style="fill:#859900;fill-opacity:1;fill-rule:nonzero;stroke:none" />
</svg>
